img/hero-3.svg

<svg width="80" height="65" viewBox="0 0 80 65" fill="none" xmlns="http://www.w3.org/2000/svg">
<path fill-rule="evenodd" clip-rule="evenodd" d="M60.0968 0.184232C59.9146 0.288644 57.7877 2.23402 55.3706 4.50732C52.9534 6.78047 50.6472 8.84494 50.2455 9.09488C49.1209 9.79481 48.4826 9.96018 46.2435 10.1307C42.8448 10.3899 40.6431 11.1476 38.7068 12.7249L37.8329 13.4366L37.095 12.8228C35.6459 11.6175 33.8221 10.8324 31.5897 10.453L30.5738 10.2803L26.588 6.32062C24.3958 4.14282 22.4365 2.27669 22.2341 2.17384C22.0146 2.0624 21.6358 2.02832 21.2963 2.08959C20.7992 2.17915 19.4158 3.50321 10.4598 12.459C-0.671799 23.5906 -0.351374 23.2195 0.226486 24.309C0.35747 24.5558 3.38182 27.67 6.9473 31.2296L13.4299 37.7012L12.6793 38.6806C11.6772 39.9881 11.3689 40.9481 11.4578 42.484C11.6068 45.0577 13.3291 47.0018 15.905 47.5037L16.8667 47.6912L16.9675 48.4162C17.1131 49.4632 17.8933 50.9704 18.6383 51.6433C19.4004 52.332 20.7229 52.9696 21.6359 53.0887C22.3685 53.1843 22.5183 53.3285 22.5217 53.9418C22.5267 54.8293 23.1754 56.1434 24.0305 56.9985C24.9633 57.9313 25.9518 58.4362 27.1264 58.5795C27.8231 58.6646 27.9216 58.7222 27.9594 59.0667C28.1162 60.5 28.8994 62.0532 29.886 62.8876C31.4436 64.2046 33.7596 64.5451 35.5414 63.7187C36.0385 63.4883 36.7595 63.0422 37.1436 62.7274L37.8419 62.1552L38.5073 62.7004C39.435 63.4605 40.2523 63.8712 41.2496 64.0783C44.3772 64.7276 47.3575 62.4209 47.7245 59.0667C47.7625 58.7197 47.8597 58.6647 48.5914 58.5755C49.7894 58.4292 51.0025 57.7753 51.8306 56.8297C52.5576 55.9994 53.158 54.6974 53.1622 53.9418C53.1658 53.3245 53.3154 53.1843 54.077 53.0848C55.0638 52.956 56.6297 52.1313 57.303 51.3859C57.9973 50.6173 58.5686 49.4139 58.7126 48.4162L58.8172 47.6912L59.7789 47.5037C62.3858 46.9958 64.0918 45.0452 64.2245 42.4212C64.3049 40.8323 63.9222 39.7285 62.8947 38.5856L62.1738 37.7839L70.9364 29.0044C75.756 24.1757 79.7833 20.0592 79.886 19.8568C79.9979 19.6364 80.0312 19.2599 79.969 18.919C79.8788 18.4241 78.6901 17.1723 70.9327 9.40217C66.0199 4.48137 61.7765 0.348978 61.5031 0.219244C60.9098 -0.0622611 60.5429 -0.0713266 60.0968 0.184232ZM73.3856 22.0371L70.5571 24.8656L62.9136 17.0256C58.7096 12.7138 55.27 9.11895 55.27 9.03736C55.27 8.95561 56.5009 7.73268 58.0053 6.31983L60.7407 3.75065L68.4774 11.4796L76.2141 19.2086L73.3856 22.0371ZM24.6348 8.8934L27.6022 11.864L18.733 20.7332L9.86364 29.6026L6.85508 26.594L3.84667 23.5855L12.6768 14.7542C17.5334 9.89703 21.5431 5.92298 21.5873 5.92298C21.6314 5.92298 23.0028 7.2597 24.6348 8.8934ZM61.7871 9.90704C60.9032 10.6509 61.0978 11.9812 62.1552 12.4229C63.7466 13.0878 65.0281 11.1448 63.772 9.97144C63.1496 9.38998 62.4294 9.36669 61.7871 9.90704ZM60.6623 19.1997L68.3377 27.084L64.1494 31.2746L59.9608 35.4651L53.3666 28.8722L46.7724 22.2794L47.4552 21.52C48.3883 20.482 48.473 19.7228 47.7378 18.9876C47.3295 18.5792 46.9205 18.4597 46.2824 18.5626C46.0247 18.604 44.4286 20.0752 41.5933 22.8846C39.2292 25.227 37.1193 27.2339 36.9047 27.3444C36.6903 27.4548 36.1227 27.5451 35.6438 27.5451C34.0258 27.5451 32.7652 26.4286 32.5756 24.8275C32.4032 23.371 32.6034 23.0962 37.0238 18.7236C42.0389 13.7628 42.389 13.558 46.3606 13.2642C49.285 13.0478 50.6791 12.6524 52.0657 11.6456C52.3666 11.4271 52.697 11.2635 52.7999 11.2819C52.9027 11.3003 56.4408 14.8635 60.6623 19.1997ZM18.2644 13.1949C17.6132 13.8461 17.6029 14.714 18.2388 15.3499C18.8876 15.9989 19.7523 15.9984 20.4019 15.3488C20.9527 14.798 20.9519 13.9372 20.4 13.2814C19.8578 12.6369 18.8627 12.5967 18.2644 13.1949ZM31.9405 13.7281C33.2106 14.0529 34.3581 14.592 35.0997 15.2123L35.5616 15.5987L33.208 17.9957C31.9134 19.3141 30.6555 20.7066 30.4128 21.0904C28.8174 23.6116 29.1645 26.7724 31.2679 28.8758C33.165 30.7728 35.8636 31.1988 38.4165 30.004C39.2332 29.6218 39.8839 29.0765 41.9579 27.0359L44.4987 24.5358L52.6425 32.6965C57.1216 37.1849 60.8638 41.0108 60.9589 41.1985C61.2551 41.7847 61.1671 42.8682 60.776 43.4486C60.3028 44.1505 59.2037 44.6137 58.3762 44.4595C57.8493 44.3614 57.2424 43.8221 53.6918 40.2965C49.6483 36.2813 49.607 36.2462 48.9515 36.2462C47.6901 36.2462 46.9494 37.566 47.6335 38.595C47.7748 38.8075 49.5962 40.7048 51.6812 42.811C55.6895 46.8602 55.813 47.0308 55.5915 48.2112C55.4538 48.945 54.6174 49.7917 53.8964 49.9269C52.5326 50.1828 52.4498 50.1247 48.2362 45.9429C46.087 43.8098 44.175 41.9865 43.9872 41.8908C43.1906 41.4849 42.3459 41.8427 41.9686 42.7458C41.8057 43.1355 41.7927 43.374 41.9163 43.7022C42.0069 43.9428 43.8283 45.898 45.964 48.0472C50.1558 52.2656 50.3731 52.5693 50.037 53.7411C49.7007 54.9139 48.9405 55.4978 47.7503 55.4978C46.927 55.4978 46.3354 55.1579 45.2721 54.074C44.615 53.4041 44.4669 53.139 44.3042 52.3415C44.0358 51.0261 43.5377 50.1115 42.6133 49.2372C41.7569 48.4272 40.4041 47.8128 39.4772 47.8128C39.1796 47.8128 38.9361 47.7906 38.9361 47.7634C38.9361 47.7362 38.8595 47.2993 38.7659 46.7927C38.3296 44.4328 36.6095 42.7338 34.233 42.3152C33.3213 42.1545 33.3091 42.1454 33.3091 41.6279C33.3091 40.3231 32.061 38.3193 30.7399 37.5027C30.1297 37.1255 28.8703 36.7192 28.304 36.7168C27.9472 36.7152 27.8933 36.6274 27.7335 35.7865C27.4883 34.4968 26.9745 33.5479 26.045 32.6688C24.9269 31.6114 23.7737 31.2 22.1333 31.2732C20.307 31.3548 19.536 31.7679 17.4421 33.7872L15.7248 35.4432L13.8872 33.6188L12.0497 31.7944L21.2331 22.61C26.284 17.5586 30.4934 13.4256 30.5874 13.4256C30.6813 13.4256 31.2903 13.5618 31.9405 13.7281ZM66.3409 14.2787C65.7374 14.5412 65.508 14.9366 65.508 15.7142C65.508 16.2615 65.6522 16.4482 67.5074 18.3036C69.3648 20.1608 69.5491 20.3031 70.0985 20.3031C70.9519 20.3031 71.6039 19.6259 71.6039 18.7398C71.6039 18.1238 71.5138 17.998 69.8454 16.2846C68.325 14.7231 67.4313 14.0333 66.9588 14.0569C66.8916 14.0604 66.6135 14.1601 66.3409 14.2787ZM14.1617 17.2423C13.9038 17.3575 12.5499 18.6118 11.1528 20.03C8.68213 22.5377 8.61288 22.6261 8.61288 23.2652C8.61288 24.1602 9.26124 24.8359 10.12 24.8359C10.6805 24.8359 10.8673 24.6819 13.4926 22.0566C16.1071 19.4423 16.2718 19.2427 16.2718 18.6906C16.2718 17.9497 15.9191 17.4044 15.3004 17.1887C14.7153 16.9847 14.7413 16.9834 14.1617 17.2423ZM23.4558 34.6018C24.0599 34.9141 24.5263 35.5378 24.6503 36.199C24.8625 37.3305 24.6052 37.6934 21.1617 41.1184C18.359 43.9058 17.8299 44.3647 17.3077 44.4608C16.4799 44.6133 15.3803 44.1496 14.9079 43.4486C14.4929 42.8326 14.4327 41.7706 14.7765 41.1229C15.0275 40.6498 20.8642 34.8152 21.3518 34.5501C21.8028 34.3047 22.9353 34.3327 23.4558 34.6018ZM29.0512 40.153C30.0715 40.7751 30.4984 42.2283 29.9604 43.2486C29.838 43.4808 28.3434 45.0541 26.6389 46.7452C23.3024 50.0553 23.1177 50.1766 21.7875 49.9269C21.0928 49.7966 20.2534 48.9738 20.0993 48.2721C19.8397 47.0902 20.0089 46.8379 23.279 43.5358C24.9701 41.8283 26.5645 40.2987 26.8224 40.1368C27.4325 39.7538 28.4081 39.7609 29.0512 40.153ZM34.1169 45.4729C35.3578 45.8175 36.0807 47.3312 35.5785 48.5333C35.306 49.1851 30.0375 54.6145 29.1275 55.1811C28.1763 55.7734 26.603 55.4917 26.037 54.628C25.6134 53.9815 25.4846 53.2734 25.6662 52.5887C25.8044 52.0679 26.3684 51.4151 28.8292 48.9283C31.6283 46.0995 32.5902 45.3241 33.3091 45.3163C33.438 45.3148 33.8015 45.3853 34.1169 45.4729ZM40.0241 51.1702C40.6282 51.4825 41.0947 52.1061 41.2186 52.7673C41.4309 53.8988 41.1736 54.2617 37.73 57.6867C34.2924 61.1056 34.0015 61.3064 32.8899 61.0274C31.4755 60.6725 30.6774 58.949 31.3448 57.6912C31.5958 57.2181 37.4326 51.3835 37.9201 51.1185C38.3712 50.8731 39.5036 50.901 40.0241 51.1702ZM43.8114 56.9957C44.3736 57.5986 44.5631 58.0207 44.5631 58.6707C44.5631 60.8555 42.0763 61.8818 40.576 60.3159L40.1326 59.8529L41.6835 58.2261C42.5366 57.3313 43.274 56.5916 43.3225 56.5826C43.3709 56.5733 43.5909 56.7593 43.8114 56.9957Z" fill="white"/>
</svg>

<svg width="80" height="65" fill="none" xmlns="http://www.w3.org/2000/svg"><path fill-rule="evenodd" clip-rule="evenodd" d="M60.097.184c-.182.105-2.31 2.05-4.726 4.323-2.418 2.273-4.724 4.338-5.126 4.588-1.124.7-1.762.865-4.002 1.036-3.398.259-5.6 1.017-7.536 2.594l-.874.712-.738-.614c-1.45-1.206-3.273-1.99-5.505-2.37l-1.016-.173-3.986-3.96c-2.192-2.177-4.152-4.043-4.354-4.146-.22-.112-.598-.146-.938-.084-.497.09-1.88 1.413-10.836 10.369C-.672 23.591-.351 23.219.226 24.309c.131.247 3.156 3.361 6.721 6.92l6.483 6.472-.75.98c-1.003 1.307-1.311 2.267-1.222 3.803.149 2.574 1.871 4.518 4.447 5.02l.962.187.1.725c.146 1.047.926 2.554 1.671 3.227.762.689 2.085 1.327 2.998 1.446.733.095.882.24.886.853.005.887.653 2.201 1.509 3.056.932.933 1.92 1.438 3.095 1.582.697.085.796.142.833.487.157 1.433.94 2.986 1.927 3.82 1.558 1.318 3.874 1.658 5.655.832a9.037 9.037 0 001.603-.992l.698-.572.665.545c.928.76 1.745 1.171 2.743 1.378 3.127.65 6.108-1.657 6.474-5.011.039-.347.136-.402.867-.492 1.198-.146 2.411-.8 3.24-1.745.727-.83 1.327-2.133 1.331-2.888.004-.617.153-.758.915-.857.987-.129 2.553-.954 3.226-1.7.694-.768 1.266-1.971 1.41-2.969l.104-.725.962-.187c2.607-.508 4.313-2.459 4.446-5.083.08-1.589-.303-2.693-1.33-3.835l-.721-.802 8.762-8.78c4.82-4.828 8.847-8.945 8.95-9.147.112-.22.145-.597.083-.938-.09-.495-1.279-1.747-9.036-9.517C66.02 4.482 61.776.35 61.503.22c-.593-.281-.96-.29-1.406-.035zm13.289 21.853l-2.829 2.829-7.643-7.84c-4.204-4.312-7.644-7.907-7.644-7.989 0-.081 1.23-1.304 2.735-2.717l2.736-2.57 7.736 7.73 7.737 7.729-2.828 2.828zM24.635 8.893l2.967 2.971-8.869 8.87-8.87 8.869-3.008-3.009-3.008-3.009 8.83-8.83c4.856-4.858 8.866-8.832 8.91-8.832.044 0 1.416 1.337 3.048 2.97zm37.152 1.014c-.884.744-.69 2.074.368 2.516 1.592.665 2.873-1.278 1.617-2.452-.622-.581-1.343-.604-1.985-.064zM60.662 19.2l7.676 7.884-4.189 4.19-4.188 4.191-6.594-6.593-6.595-6.593.683-.759c.933-1.038 1.018-1.797.283-2.532-.408-.409-.818-.528-1.456-.425-.257.041-1.853 1.512-4.689 4.322-2.364 2.342-4.474 4.349-4.688 4.46-.215.11-.782.2-1.261.2-1.618 0-2.879-1.116-3.068-2.718-.173-1.456.027-1.73 4.448-6.103 5.015-4.961 5.365-5.166 9.337-5.46 2.924-.216 4.318-.612 5.705-1.618.3-.219.631-.383.734-.364.103.018 3.64 3.582 7.862 7.918zm-42.398-6.005c-.65.651-.661 1.519-.025 2.155.649.649 1.513.648 2.163-.001.55-.551.55-1.412-.002-2.068a1.457 1.457 0 00-2.136-.086zm13.677.533c1.27.325 2.417.864 3.159 1.484l.462.387-2.354 2.397c-1.295 1.318-2.552 2.71-2.795 3.094-1.596 2.522-1.248 5.682.855 7.786 1.897 1.897 4.596 2.323 7.148 1.128.817-.382 1.468-.928 3.542-2.968l2.54-2.5 8.145 8.16c4.479 4.489 8.22 8.315 8.316 8.503.296.586.208 1.67-.183 2.25-.473.702-1.572 1.165-2.4 1.01-.527-.098-1.134-.637-4.684-4.163-4.044-4.015-4.085-4.05-4.74-4.05-1.262 0-2.003 1.32-1.319 2.349.142.212 1.963 2.11 4.048 4.216 4.009 4.05 4.132 4.22 3.91 5.4-.137.734-.974 1.58-1.695 1.716-1.363.256-1.446.198-5.66-3.984-2.149-2.133-4.061-3.956-4.249-4.052-.796-.406-1.641-.048-2.018.855-.163.39-.176.628-.053.956.09.24 1.912 2.196 4.048 4.345 4.192 4.219 4.41 4.522 4.073 5.694-.336 1.173-1.096 1.757-2.287 1.757-.823 0-1.415-.34-2.478-1.424-.657-.67-.805-.935-.968-1.732-.268-1.316-.766-2.23-1.69-3.105-.857-.81-2.21-1.424-3.137-1.424-.297 0-.54-.022-.54-.05 0-.027-.078-.464-.171-.97-.436-2.36-2.157-4.06-4.533-4.478-.912-.16-.924-.17-.924-.687 0-1.305-1.248-3.309-2.57-4.125-.61-.377-1.869-.784-2.435-.786-.357-.002-.41-.09-.57-.93-.246-1.29-.76-2.24-1.689-3.118-1.118-1.058-2.271-1.469-3.912-1.396-1.826.082-2.597.495-4.69 2.514l-1.718 1.656-1.838-1.824-1.837-1.825 9.183-9.184c5.051-5.051 9.26-9.184 9.354-9.184.094 0 .703.136 1.354.302zm34.4.55c-.604.263-.833.659-.833 1.436 0 .548.144.734 2 2.59 1.857 1.857 2.041 2 2.59 2 .854 0 1.506-.678 1.506-1.564 0-.616-.09-.742-1.759-2.455-1.52-1.562-2.414-2.252-2.886-2.228-.067.003-.346.103-.618.222zm-52.18 2.964c-.257.116-1.611 1.37-3.008 2.788-2.47 2.508-2.54 2.596-2.54 3.235 0 .895.648 1.57 1.507 1.57.56 0 .747-.153 3.373-2.778 2.614-2.615 2.779-2.814 2.779-3.366 0-.741-.353-1.287-.972-1.502-.585-.204-.559-.206-1.138.053zm9.295 17.36c.604.312 1.07.936 1.194 1.597.213 1.132-.045 1.494-3.488 4.92-2.803 2.787-3.332 3.246-3.854 3.342-.828.152-1.928-.311-2.4-1.012-.415-.616-.475-1.678-.131-2.326.25-.473 6.087-6.308 6.575-6.573.45-.245 1.583-.217 2.104.052zm5.595 5.551c1.02.622 1.447 2.075.91 3.096-.123.232-1.618 1.805-3.322 3.496-3.337 3.31-3.521 3.432-4.851 3.182-.695-.13-1.535-.953-1.689-1.655-.26-1.182-.09-1.434 3.18-4.736 1.691-1.708 3.285-3.237 3.543-3.4.61-.382 1.586-.375 2.23.017zm5.066 5.32c1.24.345 1.964 1.858 1.462 3.06-.273.652-5.541 6.081-6.451 6.648-.952.592-2.525.31-3.091-.553-.424-.647-.552-1.355-.37-2.04.137-.52.701-1.173 3.162-3.66 2.8-2.828 3.761-3.604 4.48-3.612.129-.001.492.07.808.157zm5.907 5.697c.604.313 1.07.936 1.195 1.597.212 1.132-.045 1.495-3.489 4.92-3.438 3.419-3.728 3.62-4.84 3.34-1.415-.355-2.213-2.078-1.545-3.336.25-.473 6.088-6.308 6.575-6.573.451-.245 1.584-.217 2.104.052zm3.787 5.826c.563.603.752 1.025.752 1.675 0 2.184-2.487 3.21-3.987 1.645l-.443-.463 1.55-1.627c.854-.895 1.591-1.634 1.64-1.643.048-.01.268.176.488.413z" fill="#fff"/></svg>
